flaticon/army-badges/target-18.svg

<svg xmlns="http://www.w3.org/2000/svg" width="32" height="32" viewBox="0 0 24 24">
    <path d="M 12 0 C 5.398438 0 0 5.359375 0 12 C 0 18.640625 5.398438 24 12 24 C 18.601562 24 24 18.601562 24 12 C 24 5.398438 18.601562 0 12 0 Z M 12 23.199219 C 5.839844 23.199219 0.800781 18.160156 0.800781 12 C 0.800781 5.839844 5.839844 0.800781 12 0.800781 C 18.160156 0.800781 23.199219 5.839844 23.199219 12 C 23.199219 18.160156 18.160156 23.199219 12 23.199219 Z M 12 23.199219"/>
    <path d="M 22.398438 12 C 22.398438 11.804688 22.398438 11.578125 22.378906 11.328125 C 22.027344 5.917969 17.492188 1.601562 12 1.601562 C 6.503906 1.601562 1.972656 5.917969 1.621094 11.328125 C 1.601562 11.578125 1.601562 11.804688 1.601562 12 C 1.601562 12.230469 1.601562 12.433594 1.621094 12.671875 C 1.957031 17.894531 6.144531 22.050781 11.335938 22.378906 C 11.582031 22.398438 11.804688 22.398438 12 22.398438 C 12.195312 22.398438 12.417969 22.398438 12.664062 22.378906 C 17.859375 22.050781 22.050781 17.890625 22.378906 12.660156 C 22.398438 12.414062 22.398438 12.195312 22.398438 12 Z M 20.800781 11.601562 L 21.589844 11.601562 C 21.597656 11.734375 21.601562 11.867188 21.601562 12 C 21.601562 12.132812 21.597656 12.265625 21.589844 12.398438 L 20.800781 12.398438 Z M 21.523438 10.800781 L 20.398438 10.800781 C 20.28125 10.800781 20.199219 10.839844 20.121094 10.921875 C 20.039062 11 20 11.078125 20 11.199219 L 20 11.601562 L 12.398438 11.601562 L 12.398438 4 L 12.800781 4 C 12.921875 4 13 3.960938 13.078125 3.878906 C 13.160156 3.800781 13.199219 3.71875 13.199219 3.601562 L 13.171875 2.472656 C 17.511719 3.007812 20.976562 6.464844 21.523438 10.800781 Z M 12 2.398438 C 12.132812 2.398438 12.265625 2.402344 12.398438 2.410156 L 12.398438 3.199219 L 11.601562 3.199219 L 11.601562 2.410156 C 11.734375 2.402344 11.867188 2.398438 12 2.398438 Z M 10.800781 2.476562 L 10.800781 3.601562 C 10.800781 3.71875 10.839844 3.800781 10.921875 3.878906 C 11 3.960938 11.078125 4 11.199219 4 L 11.601562 4 L 11.601562 11.601562 L 4 11.601562 L 4 11.199219 C 4 11.121094 3.960938 11 3.878906 10.921875 C 3.800781 10.839844 3.679688 10.800781 3.601562 10.800781 L 2.476562 10.800781 C 3.019531 6.472656 6.472656 3.019531 10.800781 2.476562 Z M 2.398438 12 C 2.398438 11.867188 2.402344 11.734375 2.410156 11.601562 L 3.199219 11.601562 L 3.199219 12.398438 L 2.410156 12.398438 C 2.402344 12.265625 2.398438 12.132812 2.398438 12 Z M 2.476562 13.199219 L 3.601562 13.199219 C 3.71875 13.199219 3.800781 13.160156 3.878906 13.078125 C 3.960938 13 4 12.921875 4 12.800781 L 4 12.398438 L 11.601562 12.398438 L 11.601562 13.601562 L 10.398438 13.601562 C 10.160156 13.601562 10 13.761719 10 14 C 10 14.238281 10.160156 14.398438 10.398438 14.398438 L 11.601562 14.398438 L 11.601562 15.601562 L 8.800781 15.601562 C 8.558594 15.601562 8.398438 15.761719 8.398438 16 C 8.398438 16.238281 8.558594 16.398438 8.800781 16.398438 L 11.601562 16.398438 L 11.601562 17.601562 L 7.199219 17.601562 C 6.960938 17.601562 6.800781 17.761719 6.800781 18 C 6.800781 18.238281 6.960938 18.398438 7.199219 18.398438 L 11.601562 18.398438 L 11.601562 20 L 11.199219 20 C 11.078125 20 11 20.039062 10.921875 20.121094 C 10.839844 20.199219 10.800781 20.28125 10.800781 20.398438 L 10.800781 21.523438 C 6.472656 20.980469 3.019531 17.527344 2.476562 13.199219 Z M 12 21.601562 C 11.867188 21.601562 11.734375 21.597656 11.601562 21.589844 L 11.601562 20.800781 L 12.398438 20.800781 L 12.398438 21.589844 C 12.265625 21.597656 12.132812 21.601562 12 21.601562 Z M 13.199219 21.523438 L 13.199219 20.398438 C 13.199219 20.320312 13.160156 20.199219 13.078125 20.121094 C 13 20.039062 12.921875 20 12.800781 20 L 12.398438 20 L 12.398438 18.398438 L 16.800781 18.398438 C 17.039062 18.398438 17.199219 18.238281 17.199219 18 C 17.199219 17.761719 17.039062 17.601562 16.800781 17.601562 L 12.398438 17.601562 L 12.398438 16.398438 L 15.199219 16.398438 C 15.441406 16.398438 15.601562 16.238281 15.601562 16 C 15.601562 15.761719 15.441406 15.601562 15.199219 15.601562 L 12.398438 15.601562 L 12.398438 14.398438 L 13.601562 14.398438 C 13.839844 14.398438 14 14.238281 14 14 C 14 13.761719 13.839844 13.601562 13.601562 13.601562 L 12.398438 13.601562 L 12.398438 12.398438 L 20 12.398438 L 20 12.800781 C 20 12.921875 20.039062 13.039062 20.121094 13.082031 C 20.199219 13.160156 20.28125 13.199219 20.398438 13.199219 L 21.523438 13.199219 C 20.980469 17.527344 17.527344 20.980469 13.199219 21.523438 Z M 13.199219 21.523438"/>
</svg>

<svg xmlns="http://www.w3.org/2000/svg" width="32" height="32" viewBox="0 0 24 24">
    <path d="M12 0C5.398 0 0 5.36 0 12s5.398 12 12 12 12-5.398 12-12S18.602 0 12 0zm0 23.2C5.84 23.2.8 18.16.8 12 .8 5.84 5.84.8 12 .8 18.16.8 23.2 5.84 23.2 12c0 6.16-5.04 11.2-11.2 11.2zm0 0"/>
    <path d="M22.398 12c0-.195 0-.422-.02-.672-.35-5.41-4.886-9.726-10.378-9.726-5.496 0-10.027 4.316-10.379 9.726-.02.25-.02.477-.02.672 0 .23 0 .434.02.672.336 5.223 4.524 9.379 9.715 9.707.246.02.469.02.664.02.195 0 .418 0 .664-.02 5.195-.328 9.387-4.488 9.715-9.719.02-.246.02-.465.02-.66zm-1.597-.398h.789a6.784 6.784 0 0 1 0 .796h-.79zm.722-.801h-1.125c-.117 0-.199.039-.277.12A.348.348 0 0 0 20 11.2v.403h-7.602V4h.403c.12 0 .199-.04.277-.121a.353.353 0 0 0 .121-.277l-.027-1.13c4.34.536 7.805 3.993 8.351 8.329zM12 2.398c.133 0 .266.004.398.012v.79h-.796v-.79c.132-.008.265-.012.398-.012zm-1.2.079v1.125c0 .117.04.199.122.277a.348.348 0 0 0 .277.121h.403v7.602H4v-.403a.418.418 0 0 0-.398-.398H2.477C3.02 6.473 6.473 3.02 10.8 2.477zM2.399 12c0-.133.004-.266.012-.398h.79v.796h-.79A6.784 6.784 0 0 1 2.398 12zm.079 1.2h1.125c.117 0 .199-.04.277-.122A.348.348 0 0 0 4 12.801v-.403h7.602v1.204h-1.204c-.238 0-.398.16-.398.398 0 .238.16.398.398.398h1.204v1.204H8.8c-.242 0-.403.16-.403.398 0 .238.16.398.403.398h2.8v1.204H7.2c-.238 0-.398.16-.398.398 0 .238.16.398.398.398h4.403V20h-.403c-.12 0-.199.04-.277.121a.353.353 0 0 0-.121.277v1.125C6.473 20.98 3.02 17.527 2.477 13.2zM12 21.601c-.133 0-.266-.004-.398-.012v-.79h.796v.79a6.784 6.784 0 0 1-.398.012zm1.2-.079v-1.125c0-.078-.04-.199-.122-.277a.348.348 0 0 0-.277-.121h-.403v-1.602h4.403c.238 0 .398-.16.398-.398 0-.238-.16-.398-.398-.398h-4.403v-1.204H15.2c.242 0 .403-.16.403-.398 0-.238-.16-.398-.403-.398h-2.8v-1.204h1.203c.238 0 .398-.16.398-.398 0-.238-.16-.398-.398-.398h-1.204v-1.204H20v.403c0 .12.04.238.121.281.078.078.16.117.277.117h1.125c-.543 4.328-3.996 7.781-8.324 8.324zm0 0"/>
</svg>
